dist/img/icons/Repair-ser.svg

<svg width="41" height="40" viewBox="0 0 41 40" fill="none" xmlns="http://www.w3.org/2000/svg">
<g clip-path="url(#clip0_202_30)">
<rect x="0.5" y="16.6667" width="23.3333" height="23.3333" fill="#7595FD"/>
<path d="M30.5 26.6667H27.1667V25.0001H13.8334V26.6667H10.5V25.0001H3.83337V33.3334H37.1667V25.0001H30.5V26.6667ZM33.8334 13.3334H28.8334V10.0001C28.8334 8.16675 27.3334 6.66675 25.5 6.66675H15.5C13.6667 6.66675 12.1667 8.16675 12.1667 10.0001V13.3334H7.16671C5.33337 13.3334 3.83337 14.8334 3.83337 16.6667V23.3334H10.5V20.0001H13.8334V23.3334H27.1667V20.0001H30.5V23.3334H37.1667V16.6667C37.1667 14.8334 35.6667 13.3334 33.8334 13.3334ZM25.5 13.3334H15.5V10.0001H25.5V13.3334Z" fill="white"/>
</g>
<defs>
<clipPath id="clip0_202_30">
<rect width="40" height="40" fill="white" transform="translate(0.5)"/>
</clipPath>
</defs>
</svg>

<svg width="41" height="40" fill="none" xmlns="http://www.w3.org/2000/svg"><g clip-path="url(#a)"><path fill="#7595FD" d="M.5 16.667h23.333V40H.5z"/><path d="M30.5 26.667h-3.333V25H13.833v1.667H10.5V25H3.833v8.333h33.334V25H30.5v1.667Zm3.333-13.334h-5V10c0-1.833-1.5-3.333-3.333-3.333h-10A3.343 3.343 0 0 0 12.167 10v3.333h-5a3.343 3.343 0 0 0-3.334 3.334v6.666H10.5V20h3.333v3.333h13.334V20H30.5v3.333h6.667v-6.666c0-1.834-1.5-3.334-3.334-3.334Zm-8.333 0h-10V10h10v3.333Z" fill="#fff"/></g><defs><clipPath id="a"><path fill="#fff" transform="translate(.5)" d="M0 0h40v40H0z"/></clipPath></defs></svg>
